X:1
T:A Hymn-Tune - Choral
T:A Hymn-Tune - Choral
T:Album for the Young
T:Robert Schumann, Op. 68, No. 4
C:Robert Schumann, Op. 68, No. 4
%%score { ( 1 2 ) | ( 3 4 ) }
L:1/8
M:4/4
K:G
V:1 treble nm="Piano" snm="Pno."
V:2 treble 
V:3 bass 
V:4 bass 
V:1
!p! !3!G4 !4!A4 | !5!B4 !4!A4 | !5!G4 !4!F4 | !3!E4 !fermata!!1!D4 | !4!G4 !54!A4 | %5
 !54!B4 !5!c4 | !45!B4 !45!A4 | !fermata!!4!G8 | G4 A4 | B4 A4 | G4 F4 | E4 !fermata!D4 | %12
 G4 A4 | B4 c4 | B4 A4 | !fermata!G8 | !3!B4 !4!c4 | !5!d4 !45!c4 | !4!B4 !3!A4 | !fermata!!4!B8 | %20
 !4!d4 d4 | !5!e4 !45!d4 | !4!c4 !34!B4 | !fermata!!3!A8 | !3!B2 c2 d4 | !4!c4 !34!B4 | %26
 !3!G4 A4 | !fermata!B4 !fermata!G4 | !3!B2 c2 d4 | !4!c4 !34!B4 | !3!A4 !4!A4 | !fermata!G8 |] %32
V:2
 D4 D4 | D4 D4 | !2!^C4 !1!D4 | !2!^C4 D4 | B,4 !21!D4 | D4 !2!G4 | D4- D2 C2 | B,8 | D4 D4 | %9
 D4 D4 | ^C4 D4 | ^C4 D4 | B,4 D4 | D4 G4 | D4- D2 C2 | B,8 | G4 !2!F4 | !1!G4 !2!F4 | %18
 !1!G4 !1!G2 !2!F2 | !1!G8 | G4 G4 | G4 G4 | !2!F4 !1!G4 | !2!F8 | G4 G4 | G4 G4 | E4 F4 | G4 E4 | %28
 G4 G4 | !2!F4 !12!G4 | E4 !2!F4 | G8 |] %32
V:3
 B,4 !2!A,4 | G,4 !2!A,4 | !1!A,4 A,4 | A,4 F,4 | E,4 F,4 | G,4 G,4 | G,4 !2!F,4 | G,8 | B,4 A,4 | %9
 G,4 A,4 | A,4 A,4 | A,4 F,4 | E,4 F,4 | G,4 G,4 | G,4 F,4 | G,8 | !1!D4 !2!C4 | B,4 C4 | %18
 !1!D4 !1!E2 D2 | !1!D8 | !3!B,4 D4 | C4 D4 | D4 D4 | D8 | !1!D4 D4 | E4 !1!D4 | C4 !4!C4 | D4 C4 | %28
 D4 D4 | D4 D4 | C4 C4 | B,8 |] %32
V:4
 !3!G,4 !4!F,4 | !1!G,4 !3!F,4 | !4!E,4 !53!D,4 | A,,4 !fermata!D,4 | !3!E,4 D,4 | G,4 !3!E,4 | %6
 !4!D,4 !3!D,4 | !fermata!G,,8 | G,4 F,4 | G,4 F,4 | E,4 D,4 | A,,4 !fermata!D,4 | E,4 D,4 | %13
 G,4 E,4 | D,4 D,4 | !fermata!G,,8 | !5!G,4 !4!A,4 | B,4 A,4 | !5!G,4 !3!C2 !2!D2 | %19
 !fermata!!5!G,8 | !5!G,4 !3!B,4 | C4 B,4 | !4!A,4 !53!G,4 | !fermata!D,8 | !5!G,2 A,2 B,4 | %25
 !2!C4 !5!G,4 | !2!C4 !2!A,4 | !fermata!G,4 !fermata!C,4 | !5!G,2 A,2 B,4 | A,4 !52!G,4 | %30
 C,4 !45!D,4 | !fermata!G,8 |] %32

